X:90
T: Priest's Jig
T: Port an tSagairt
S: B.Breathnach:"Ceol Rince na hEireann" IV/18
Z: B.Black
L: 1/8
M: 6/8
R: jig
K: G
BAB dBA|GED G2A|Bee dBA|cBc AGA|
BAB dBA|GED G2A|Bee dBA|BGG G3 :|
gfg age|ded def|gfg agf|g2d B2d|
gfg age|ded def|gfg agf|g3 g3 :|
